X: 13
T: Flogging, The
Z: G.Ryckeboer
S: https://thesession.org/tunes/195#setting47249
R: reel
M: 4/4
L: 1/8
K: Gmaj
BGG2 (BG)(dc)|(BG)G2 Bcdc|BGG2 BG(dc)|AGFG (ABcA)|
(BG)G2 (BG)G2|(BG)G2 ABcA|BGG2 BGdc|AGFG ABcA||
g2ge dBG2|g2ge ga (3bag|g2ge dBG2|AGFG ABcA|
g2ge dBG2|g2ge ga (3bag|g2ge dBG2|AGFG ABcA||

%-------------------- TUNE SEPARATOR --------------------%

